X:1
T:Title
%%score 1 2
L:1/8
Q:1/4=93
M:4/4
K:D
V:1 treble nm="Grand Piano, Soprano"
V:2 bass nm="Choir Pad, Place Me on the Heavenly Side"
V:1
 D2 [DF]>[DF] [DF]>[CE] D2- | D[FA] [Fd]>[Fd] [Fd]>[GB] [FA]2- | [FA]2 [DF]>[DF] [DF]>[DF] [EG]2 | %3
w: By~Sallie~M.~Rather * * * * *|||
 [DF]2 [CE]6 | D2 [DF]>[DF] [DF]>[CE] D2- | D[FA] [Fd]>[Fd] [Fd]>[GB] [FA]2 | %6
w: |||
 [EG]2 [DF]>[DF] [DF]>D [DF]2 | [CE]2 D6 | [FA]2 [Fd]4 [FA]2- | [FA]2 [GB]>[Bd] [Ac]>[GB] [FA]2 | %10
w: ||||
 [FA]2 [Fd]4 [FA]2- | [FA]2 [GB]>[FA] [DF]>D [CE]2 | D2 [DF]>[DF] [DF]>[CE] D2- | %13
w: |||
 D[FA] [Fd]>[Fd] [Fd]>[GB] [FA]2 | [EG]2 [DF]>[DF] [DF]>D [DF]2 | [CE]2 D6- | D2 z2 z4 |] %17
w: ||||
V:2
 [D,F,]2 [D,A,]>[D,A,] [D,A,]>[D,G,] [D,F,]2- | [D,F,][D,A,] [D,D]>[D,D] [D,D]>[D,D] [D,D]2- | %2
 [D,D]2 [D,A,]>[D,A,] [D,A,]>[D,A,] [C,A,]2 | [D,A,]2 [A,,A,]6 | %4
 [D,F,]2 [D,A,]>[D,A,] [D,A,]>[D,G,] [D,F,]2- | [D,F,][D,A,] [D,D]>[D,D] [D,D]>[D,D] [D,D]2 | %6
 [G,B,]2 A,>A, A,>A, [A,,A,]2 | [A,,G,]2 [D,F,]6 | [D,A,]2 [D,A,]2 [D,A,]2 [D,D]2 | %9
 [D,D]2 [G,D]>[G,D] [G,D]>[G,D] [D,D]2 | [D,D]2 [D,A,]2 [D,A,]2 [D,D]2 | %11
 [D,D]2 [D,D]>[D,D] [D,A,]>[D,F,] [A,,A,]2 | [D,F,]2 [D,A,]>[D,A,] [D,A,]>[D,G,] [D,F,]2- | %13
 [D,F,][D,A,] [D,D]>[D,D] [D,D]>[D,D] [D,D]2 | [G,B,]2 A,>A, A,>A, [A,,A,]2 | [A,,G,]2 [D,F,]6- | %16
 [D,F,]2 z2 z4 |] %17

